svg/color/usd.svg

<svg width="64" height="65" viewBox="0 0 64 65" fill="none" xmlns="http://www.w3.org/2000/svg">
<rect y="0.303711" width="64" height="64" rx="32" fill="#3BC726"/>
<rect x="0.5" y="0.803711" width="63" height="63" rx="31.5" stroke="#070B14" stroke-opacity="0.15"/>
<path d="M33.7125 48.3037V45.4725C36.6062 45.3225 38.8062 44.535 40.5062 43.11C42.2062 41.685 43.0562 39.7912 43.0562 37.5975C43.0562 35.235 42.3687 33.4912 40.85 32.385C39.3125 31.1287 37.1125 30.1725 33.875 29.5537H33.7125V22.2912C35.9187 22.61 37.7937 23.2287 39.6562 24.5037L42.3812 21.035C39.6562 19.2912 36.7625 18.3537 33.7062 18.2037V16.3037H31.1562V18.1975C28.6062 18.3475 26.3875 19.135 24.6875 20.56C22.9875 21.985 22.1375 23.8787 22.1375 26.0725C22.1375 28.2662 22.825 30.01 24.3437 31.1162C25.7 32.2225 28.0812 33.16 31.1375 33.7975V41.2037C28.75 40.885 26.3687 39.7787 24 37.885L20.9437 41.2037C24 43.735 27.4125 45.1412 31.15 45.46V48.3037H33.7125ZM33.875 34.5787C35.575 35.0475 36.6 35.5162 37.275 36.0037C37.7812 36.6412 38.125 37.26 38.125 38.2162C38.125 39.1725 37.7812 39.7912 36.9312 40.4287C36.0812 41.0662 35.05 41.3662 33.875 41.535V34.5787ZM27.9312 27.8037C27.425 27.335 27.0812 26.5475 27.0812 25.76C27.0812 24.8225 27.425 24.185 28.0937 23.5475C28.9437 22.91 29.7937 22.61 31.15 22.4412V29.2287C29.45 28.7412 28.4375 28.2725 27.9312 27.8037Z" fill="black"/>
</svg>

<svg xmlns="http://www.w3.org/2000/svg" width="64" height="65" fill="none" viewBox="0 0 64 65"><rect width="64" height="64" y=".304" fill="#3BC726" rx="32"/><rect width="63" height="63" x=".5" y=".804" stroke="#070B14" stroke-opacity=".15" rx="31.5"/><path fill="#000" d="M33.713 48.304v-2.832c2.893-.15 5.093-.937 6.793-2.362s2.55-3.319 2.55-5.513c0-2.362-.687-4.106-2.206-5.212-1.538-1.256-3.738-2.212-6.975-2.831h-.163V22.29c2.207.319 4.082.938 5.944 2.213l2.725-3.469c-2.725-1.744-5.618-2.681-8.675-2.831v-1.9h-2.55v1.894c-2.55.15-4.768.937-6.468 2.362s-2.55 3.319-2.55 5.513.687 3.937 2.206 5.043c1.356 1.106 3.737 2.044 6.793 2.682v7.406q-3.582-.478-7.137-3.319l-3.056 3.319C24 43.735 27.413 45.14 31.15 45.46v2.844zm.162-13.725c1.7.468 2.725.937 3.4 1.425.506.637.85 1.256.85 2.212s-.344 1.575-1.194 2.213c-.85.637-1.881.937-3.056 1.106zm-5.944-6.775c-.506-.469-.85-1.256-.85-2.044 0-.937.344-1.575 1.013-2.213.85-.637 1.7-.937 3.056-1.106v6.788c-1.7-.488-2.712-.956-3.219-1.425"/></svg>
